src/images/icons/expenses/alcohol.svg

<svg width="46" height="56" viewBox="0 0 46 56" fill="none" xmlns="http://www.w3.org/2000/svg">
<path d="M44.7966 6.85344H16.7263C16.4095 5.07598 15.5219 3.44805 14.1799 2.20795C12.6392 0.784109 10.6344 0 8.53529 0C3.94603 0 0.212402 3.73363 0.212402 8.32289C0.212402 12.9122 3.94603 16.6458 8.53529 16.6458C9.37792 16.6458 10.2059 16.5178 11.0049 16.269C12.2569 17.4502 13.8082 18.3339 15.5601 18.7895C16.6919 19.0839 17.5518 20.0179 17.7506 21.1692L18.8067 27.2869C19.1799 29.4483 20.3826 31.322 22.1934 32.5629C23.5664 33.5037 24.386 35.0378 24.386 36.6667V49.1358C23.7525 49.5373 23.3467 50.243 23.3467 51.0216C23.3467 51.0453 23.3471 51.0689 23.3478 51.0926C21.2718 51.5169 19.5618 51.9077 18.2638 52.2545C17.3795 52.4907 16.7124 52.6991 16.2242 52.8915C15.7695 53.0707 14.9229 53.4044 14.9229 54.1789C14.9229 55.2196 16.276 55.3972 17.3632 55.5401C18.2972 55.6628 19.5912 55.765 21.2093 55.844C23.9428 55.9776 26.712 55.9998 26.7397 56C26.7417 56 26.7438 56 26.7459 56C26.748 56 26.7502 56 26.7521 56C26.7798 55.9998 29.549 55.9775 32.2825 55.844C33.9006 55.765 35.1946 55.6628 36.1286 55.5401C37.2158 55.3972 38.5689 55.2196 38.5689 54.1789C38.5689 53.3558 37.8098 52.9312 35.0374 52.2039C33.3574 51.7632 31.2644 51.3183 29.7613 51.0147C29.7595 50.4148 29.521 49.8541 29.1058 49.4417V36.6665C29.1058 35.0377 29.9255 33.5036 31.2985 32.5628C33.1092 31.3219 34.3119 29.4482 34.6851 27.2868L35.7412 21.1691C35.94 20.0178 36.7998 19.0837 37.9317 18.7894C41.7271 17.8024 44.5817 14.8092 45.4845 11.1234C45.488 11.1092 45.4917 11.0952 45.4945 11.0808C45.6852 10.2879 45.7875 9.464 45.7875 8.62061V7.84459C45.7876 7.29805 45.343 6.85344 44.7966 6.85344ZM8.53529 14.9839C4.86237 14.9839 1.87425 11.9958 1.87425 8.32289C1.87425 4.64997 4.86237 1.66184 8.53529 1.66184C10.2152 1.66184 11.8193 2.28922 13.0522 3.42847C14.0525 4.3528 14.737 5.54575 15.0313 6.85344H14.1802C13.5225 4.31988 11.214 2.48828 8.53529 2.48828C5.31803 2.48828 2.70068 5.10573 2.70068 8.32289C2.70068 11.54 5.31814 14.1575 8.53529 14.1575C8.77482 14.1575 9.0149 14.1413 9.254 14.1115C9.41347 14.3717 9.5842 14.6244 9.76543 14.8695C9.36162 14.9454 8.95059 14.9839 8.53529 14.9839ZM11.0797 5.7785C10.7553 5.45409 10.2291 5.45409 9.90467 5.7785L9.65617 6.027C9.43239 6.25067 9.36304 6.57027 9.44781 6.85344H8.69553C8.14898 6.85344 7.70437 7.29805 7.70437 7.84459V8.62061C7.70437 9.46378 7.80664 10.2875 7.99728 11.0801C8.00023 11.0955 8.00417 11.1105 8.00789 11.1256C8.12262 11.5935 8.26776 12.0506 8.44342 12.4935C6.18493 12.4443 4.36242 10.593 4.36242 8.32289C4.36242 6.02197 6.23437 4.15002 8.53529 4.15002C10.3006 4.15002 11.8416 5.2617 12.4406 6.85344H11.1639C11.4002 6.52848 11.3727 6.07152 11.0797 5.7785ZM29.3099 52.6189C32.2309 53.2067 34.0648 53.6522 35.2126 53.974C33.1135 54.1802 29.7462 54.3152 26.746 54.3382C23.7465 54.3152 20.3795 54.1802 18.2803 53.9742C19.3781 53.6663 21.103 53.2454 23.8063 52.6949C24.5541 52.5428 25.0718 51.8425 25.0104 51.0666C25.0092 51.0518 25.0086 51.0367 25.0086 51.0215C25.0086 50.7641 25.1826 50.5378 25.4319 50.471C25.7952 50.3737 26.0479 50.0445 26.0479 49.6684V36.6665C26.0479 35.5725 25.7725 34.5115 25.267 33.568C25.7314 33.5981 26.2385 33.6135 26.746 33.6135C27.2535 33.6135 27.7606 33.5981 28.225 33.568C27.7196 34.5116 27.4441 35.5726 27.4441 36.6665V49.8361C27.4441 50.1212 27.5904 50.3864 27.8314 50.5386C27.9993 50.6446 28.0996 50.825 28.0996 51.0214C28.0996 51.034 28.0992 51.0466 28.0985 51.0581C28.0506 51.7994 28.5714 52.4704 29.3099 52.6189ZM44.126 8.62061H44.1259C44.1259 9.12012 44.0839 9.61166 44.0032 10.0917H18.989C18.5302 10.0917 18.1581 10.4637 18.1581 10.9226C18.1581 11.3815 18.5301 11.7535 18.989 11.7535H43.5522C42.5587 14.3772 40.3481 16.4442 37.5138 17.1812C35.7518 17.6393 34.4134 19.0937 34.104 20.8865L33.0479 27.0041C32.7517 28.7198 31.7969 30.2071 30.3594 31.1921C30.1365 31.3449 29.4746 31.7017 29.3538 31.7555C28.6963 32.0147 24.8013 32.0148 24.1394 31.756C24.019 31.7028 23.3563 31.3453 23.1327 31.1922C21.6952 30.2071 20.7404 28.7198 20.4443 27.0042L19.3881 20.8866C19.0787 19.0938 17.7402 17.6395 15.9784 17.1813C14.3746 16.7642 12.9709 15.921 11.8736 14.7925C11.8476 14.7604 11.8191 14.7308 11.789 14.7033C10.9876 13.856 10.3566 12.8541 9.93989 11.7537H15.1232C15.582 11.7537 15.9541 11.3817 15.9541 10.9227C15.9541 10.4639 15.5821 10.0918 15.1232 10.0918H9.48893C9.40821 9.61176 9.36621 9.12012 9.36621 8.62072V8.51528H44.126V8.62061Z" fill="#071F41"/>
</svg>

<!-- Generated by IcoMoon.io -->
<svg version="1.1" xmlns="http://www.w3.org/2000/svg" width="46" height="56" viewBox="0 0 46 56">
<title>alcohol</title>
<path d="M44.797 6.853h-28.070c-0.317-1.777-1.204-3.405-2.546-4.645-1.541-1.424-3.546-2.208-5.645-2.208-4.589 0-8.323 3.734-8.323 8.323s3.734 8.323 8.323 8.323c0.843 0 1.671-0.128 2.47-0.377 1.252 1.181 2.803 2.065 4.555 2.52 1.132 0.294 1.992 1.228 2.191 2.38l1.056 6.118c0.373 2.161 1.576 4.035 3.387 5.276 1.373 0.941 2.193 2.475 2.193 4.104v12.469c-0.634 0.402-1.039 1.107-1.039 1.886 0 0.024 0 0.047 0.001 0.071-2.076 0.424-3.786 0.815-5.084 1.162-0.884 0.236-1.551 0.445-2.040 0.637-0.455 0.179-1.301 0.513-1.301 1.287 0 1.041 1.353 1.218 2.44 1.361 0.934 0.123 2.228 0.225 3.846 0.304 2.733 0.134 5.503 0.156 5.53 0.156 0.002 0 0.004 0 0.006 0s0.004 0 0.006 0c0.028-0 2.797-0.022 5.53-0.156 1.618-0.079 2.912-0.181 3.846-0.304 1.087-0.143 2.44-0.321 2.44-1.361 0-0.823-0.759-1.248-3.532-1.975-1.68-0.441-3.773-0.886-5.276-1.189-0.002-0.6-0.24-1.161-0.655-1.573v-12.775c0-1.629 0.82-3.163 2.193-4.104 1.811-1.241 3.013-3.115 3.387-5.276l1.056-6.118c0.199-1.151 1.059-2.085 2.191-2.38 3.795-0.987 6.65-3.98 7.553-7.666 0.004-0.014 0.007-0.028 0.010-0.043 0.191-0.793 0.293-1.617 0.293-2.46v-0.776c0-0.547-0.445-0.991-0.991-0.991zM8.535 14.984c-3.673 0-6.661-2.988-6.661-6.661s2.988-6.661 6.661-6.661c1.68 0 3.284 0.627 4.517 1.767 1 0.924 1.685 2.117 1.979 3.425h-0.851c-0.658-2.534-2.966-4.365-5.645-4.365-3.217 0-5.835 2.617-5.835 5.835s2.617 5.835 5.835 5.835c0.24 0 0.48-0.016 0.719-0.046 0.159 0.26 0.33 0.513 0.511 0.758-0.404 0.076-0.815 0.114-1.23 0.114zM11.080 5.779c-0.324-0.324-0.851-0.324-1.175 0l-0.248 0.248c-0.224 0.224-0.293 0.543-0.208 0.826h-0.752c-0.547 0-0.991 0.445-0.991 0.991v0.776c0 0.843 0.102 1.667 0.293 2.46 0.003 0.015 0.007 0.030 0.011 0.045 0.115 0.468 0.26 0.925 0.436 1.368-2.258-0.049-4.081-1.901-4.081-4.171 0-2.301 1.872-4.173 4.173-4.173 1.765 0 3.306 1.112 3.905 2.703h-1.277c0.236-0.325 0.209-0.782-0.084-1.075zM29.31 52.619c2.921 0.588 4.755 1.033 5.903 1.355-2.099 0.206-5.466 0.341-8.467 0.364-3-0.023-6.366-0.158-8.466-0.364 1.098-0.308 2.823-0.729 5.526-1.279 0.748-0.152 1.266-0.852 1.204-1.628-0.001-0.015-0.002-0.030-0.002-0.045 0-0.257 0.174-0.484 0.423-0.55 0.363-0.097 0.616-0.427 0.616-0.803v-13.002c0-1.094-0.275-2.155-0.781-3.098 0.464 0.030 0.972 0.045 1.479 0.045s1.015-0.015 1.479-0.045c-0.505 0.944-0.781 2.005-0.781 3.098v13.17c0 0.285 0.146 0.55 0.387 0.703 0.168 0.106 0.268 0.286 0.268 0.483 0 0.013-0 0.025-0.001 0.037-0.048 0.741 0.473 1.412 1.211 1.561zM44.126 8.621h-0c0 0.5-0.042 0.991-0.123 1.471h-25.014c-0.459 0-0.831 0.372-0.831 0.831s0.372 0.831 0.831 0.831h24.563c-0.994 2.624-3.204 4.691-6.038 5.428-1.762 0.458-3.1 1.912-3.41 3.705l-1.056 6.118c-0.296 1.716-1.251 3.203-2.688 4.188-0.223 0.153-0.885 0.51-1.006 0.563-0.658 0.259-4.553 0.259-5.214 0-0.12-0.053-0.783-0.411-1.007-0.564-1.438-0.985-2.392-2.472-2.688-4.188l-1.056-6.118c-0.309-1.793-1.648-3.247-3.41-3.705-1.604-0.417-3.007-1.26-4.105-2.389-0.026-0.032-0.055-0.062-0.085-0.089-0.801-0.847-1.432-1.849-1.849-2.95h5.183c0.459 0 0.831-0.372 0.831-0.831s-0.372-0.831-0.831-0.831h-5.634c-0.081-0.48-0.123-0.972-0.123-1.471v-0.105h34.76v0.105z"></path>
</svg>
